assets/img/microillustration/responsive.svg

<svg viewBox="0 0 106 106" xmlns="http://www.w3.org/2000/svg"><g fill="none" fill-rule="evenodd"><rect fill="#009BBD" x="13" y="13" width="80" height="80" rx="12"/><path d="M44 55v-.001L32 55v5l-13-6.5L32 47v5h43v-5l13 6.5L75 60v-5l-12-.001V55H44z" fill="#ACEDFB"/></g></svg>

<?xml version="1.0" encoding="UTF-8"?>
<svg viewBox="0 0 106 106" version="1.1" xmlns="http://www.w3.org/2000/svg" xmlns:xlink="http://www.w3.org/1999/xlink">
    <title>4. Elements_Microillustrations/Responsive</title>
    <g id="4.-Elements_Microillustrations/Responsive" stroke="none" stroke-width="1" fill="none" fill-rule="evenodd">
        <rect id="Rectangle" fill="#009BBD" x="13" y="13" width="80" height="80" rx="12"></rect>
        <path d="M44,55 L44,54.999 L32,55 L32,60 L19,53.5 L32,47 L32,52 L53.5,52 L75,52 L75,47 L88,53.5 L75,60 L75,55 L63,54.999 L63,55 L44,55 Z" id="Combined-Shape" fill="#ACEDFB"></path>
    </g>
</svg>
